svgs/thin/money-from-bracket.svg

<svg xmlns="http://www.w3.org/2000/svg" viewBox="0 0 640 512"><!--! Font Awesome Pro 6.5.1 by @fontawesome - https://fontawesome.com License - https://fontawesome.com/license (Commercial License) Copyright 2023 Fonticons, Inc. --><path d="M72 16C41.1 16 16 41.1 16 72v80c0 4.4-3.6 8-8 8s-8-3.6-8-8V72C0 32.2 32.2 0 72 0H568c39.8 0 72 32.2 72 72v80c0 4.4-3.6 8-8 8s-8-3.6-8-8V72c0-30.9-25.1-56-56-56H72zM504 80c4.4 0 8 3.6 8 8l0 376c0 26.5-21.5 48-48 48H176c-26.5 0-48-21.5-48-48l0-376c0-4.4 3.6-8 8-8s8 3.6 8 8l0 376c0 17.7 14.3 32 32 32H464c17.7 0 32-14.3 32-32l0-376c0-4.4 3.6-8 8-8zM320 200c-50 0-88 33.5-88 72s38 72 88 72s88-33.5 88-72s-38-72-88-72zm104 72c0 49.9-48 88-104 88s-104-38.1-104-88s48-88 104-88s104 38.1 104 88zm48 120c0 4.4-3.6 8-8 8h-8c-30.9 0-56 25.1-56 56v8c0 4.4-3.6 8-8 8s-8-3.6-8-8v-8c0-39.8 32.2-72 72-72h8c4.4 0 8 3.6 8 8zm-296-8h8c39.8 0 72 32.2 72 72v8c0 4.4-3.6 8-8 8s-8-3.6-8-8v-8c0-30.9-25.1-56-56-56h-8c-4.4 0-8-3.6-8-8s3.6-8 8-8z"/></svg>

<svg xmlns="http://www.w3.org/2000/svg" viewBox="0 0 640 512"><!--! Font Awesome Pro 6.1.1 by @fontawesome - https://fontawesome.com License - https://fontawesome.com/license (Commercial License) Copyright 2022 Fonticons, Inc. --><path d="M72 16C41.07 16 16 41.07 16 72V152C16 156.4 12.42 160 8 160C3.582 160 0 156.4 0 152V72C0 32.24 32.24 0 72 0H568C607.8 0 640 32.24 640 72V152C640 156.4 636.4 160 632 160C627.6 160 624 156.4 624 152V72C624 41.07 598.9 16 568 16H72zM504 80C508.4 80 512 83.58 512 88V464C512 490.5 490.5 512 464 512H176C149.5 512 128 490.5 128 464V88C128 83.58 131.6 80 136 80C140.4 80 144 83.58 144 88V464C144 481.7 158.3 496 176 496H464C481.7 496 496 481.7 496 464V88C496 83.58 499.6 80 504 80zM320 360C263.1 360 216 321.9 216 272C216 222.1 263.1 184 320 184C376 184 424 222.1 424 272C424 321.9 376 360 320 360zM232 272C232 310.5 269.1 344 320 344C370 344 408 310.5 408 272C408 233.5 370 200 320 200C269.1 200 232 233.5 232 272zM464 400H456C425.1 400 400 425.1 400 456V464C400 468.4 396.4 472 392 472C387.6 472 384 468.4 384 464V456C384 416.2 416.2 384 456 384H464C468.4 384 472 387.6 472 392C472 396.4 468.4 400 464 400zM184 384C223.8 384 256 416.2 256 456V464C256 468.4 252.4 472 248 472C243.6 472 240 468.4 240 464V456C240 425.1 214.9 400 184 400H176C171.6 400 168 396.4 168 392C168 387.6 171.6 384 176 384H184z"/></svg>
